tools/download-figma-icons/icons/outlined-medium/doctor.svg

<svg width="24" height="24" viewBox="0 0 24 24" fill="none" xmlns="http://www.w3.org/2000/svg">
<path fill-rule="evenodd" clip-rule="evenodd" d="M18 14.25C18 15.4905 19.0095 16.5 20.25 16.5C21.4905 16.5 22.5 15.4905 22.5 14.25C22.5 13.0095 21.4905 12 20.25 12C19.0095 12 18 13.0095 18 14.25ZM6.71175 14.9625C6.483 14.9835 6.249 15 6 15C5.79148 15 5.60162 14.9819 5.41222 14.9637C5.37069 14.9598 5.32918 14.9558 5.2875 14.952L5.31675 15.528C5.3535 16.1573 5.6535 16.5 5.76825 16.5H6.23175C6.3465 16.5 6.6465 16.158 6.68325 15.5228L6.71175 14.9625ZM2.33476 9.75H1.56751C1.77526 11.0513 2.61601 13.5 6.00001 13.5C9.38251 13.5 10.224 11.0527 10.4318 9.75H9.66526C9.60151 10.0658 9.48976 10.4482 9.29701 10.8352C8.67901 12.0705 7.50901 12.75 6.00001 12.75C4.49101 12.75 3.32026 12.0705 2.70301 10.8352C2.51026 10.4482 2.39851 10.0658 2.33476 9.75ZM17.25 6.75C17.7757 6.75 18.3285 6.8595 18.843 7.10475C19.899 7.6095 20.7945 8.68725 20.967 10.5728C22.6927 10.9088 24 12.4275 24 14.25C24 16.3177 22.3177 18 20.25 18C18.1823 18 16.5 16.3177 16.5 14.25C16.5 12.453 17.772 10.95 19.4625 10.5863C19.2893 9.09225 18.5047 8.25 17.25 8.25C15.7987 8.25 15 9.29325 15 11.1877V17.25C15 22.8285 12.3488 24 10.125 24C7.99275 24 5.475 22.9125 5.2695 17.9062C4.479 17.6355 3.885 16.743 3.819 15.6097L3.76875 14.6415C2.1495 14.0827 1.23375 12.9577 0.735 11.9602C0.00825003 10.506 0 9.06075 0 9C0 8.58525 0.336 8.25 0.75 8.25H1.125V3.375C1.125 1.9275 2.3025 0.75 3.75 0.75C3.75 0.33525 4.08525 0 4.5 0C4.91475 0 5.25 0.33525 5.25 0.75V2.25C5.25 2.66475 4.91475 3 4.5 3C4.08525 3 3.75 2.66475 3.75 2.25C3.12975 2.25 2.625 2.75475 2.625 3.375V8.25H3C3.1995 8.25 3.39 8.32875 3.53025 8.46975C3.67125 8.61 3.75 8.80125 3.75 9.00075C3.75375 9.37275 3.88125 11.25 6 11.25C8.118 11.25 8.2455 9.37275 8.25 8.99625C8.2545 8.58525 8.589 8.25 9 8.25H9.375V3.375C9.375 2.75475 8.87025 2.25 8.25 2.25C8.25 2.66475 7.91475 3 7.5 3C7.08525 3 6.75 2.66475 6.75 2.25V0.75C6.75 0.33525 7.08525 0 7.5 0C7.91475 0 8.25 0.33525 8.25 0.75C9.6975 0.75 10.875 1.9275 10.875 3.375V8.25H11.25C11.6648 8.25 12 8.58525 12 9C12 10.7025 11.1525 13.644 8.23125 14.649L8.181 15.6052C8.1165 16.725 7.53975 17.6063 6.7665 17.892C6.93825 21.9983 8.74575 22.5 10.125 22.5C11.574 22.5 13.5 21.9555 13.5 17.25V11.1877C13.5 7.91625 15.4373 6.75 17.25 6.75ZM19.5 14.25C19.5 13.8352 19.8353 13.5 20.25 13.5C20.6647 13.5 21 13.8352 21 14.25C21 14.6648 20.6647 15 20.25 15C19.8353 15 19.5 14.6648 19.5 14.25Z" fill="black"/>
</svg>

<svg xmlns="http://www.w3.org/2000/svg" width="24" height="24" fill="none" viewBox="0 0 24 24"><path fill="currentColor" fill-rule="evenodd" d="M18 14.25c0 1.24 1.01 2.25 2.25 2.25s2.25-1.01 2.25-2.25S21.49 12 20.25 12 18 13.01 18 14.25m-11.288.713A8 8 0 0 1 6 15c-.209 0-.398-.018-.588-.036l-.125-.012.03.576c.037.63.337.972.451.972h.464c.114 0 .414-.342.451-.977zM2.335 9.75h-.767C1.775 11.051 2.616 13.5 6 13.5c3.383 0 4.224-2.447 4.432-3.75h-.767a4.4 4.4 0 0 1-.368 1.085C8.679 12.07 7.509 12.75 6 12.75s-2.68-.68-3.297-1.915a4.4 4.4 0 0 1-.368-1.085m14.915-3c.526 0 1.078.11 1.593.355 1.056.504 1.951 1.582 2.124 3.468A3.75 3.75 0 0 1 24 14.25 3.754 3.754 0 0 1 20.25 18a3.754 3.754 0 0 1-3.75-3.75c0-1.797 1.272-3.3 2.962-3.664-.173-1.494-.957-2.336-2.212-2.336-1.451 0-2.25 1.043-2.25 2.938v6.062c0 5.578-2.651 6.75-4.875 6.75-2.132 0-4.65-1.087-4.855-6.094-.791-.27-1.385-1.163-1.451-2.296l-.05-.968c-1.62-.56-2.535-1.684-3.034-2.682A7.3 7.3 0 0 1 0 9a.75.75 0 0 1 .75-.75h.375V3.375A2.63 2.63 0 0 1 3.75.75a.75.75 0 1 1 1.5 0v1.5a.75.75 0 1 1-1.5 0c-.62 0-1.125.505-1.125 1.125V8.25H3a.747.747 0 0 1 .75.75c.004.373.131 2.25 2.25 2.25s2.246-1.877 2.25-2.254A.754.754 0 0 1 9 8.25h.375V3.375c0-.62-.505-1.125-1.125-1.125a.75.75 0 1 1-1.5 0V.75a.75.75 0 1 1 1.5 0 2.63 2.63 0 0 1 2.625 2.625V8.25h.375A.75.75 0 0 1 12 9c0 1.703-.848 4.644-3.769 5.649l-.05.956c-.064 1.12-.641 2.001-1.414 2.287.171 4.106 1.979 4.608 3.358 4.608 1.449 0 3.375-.544 3.375-5.25v-6.062c0-3.272 1.937-4.438 3.75-4.438m2.25 7.5a.75.75 0 1 1 1.499-.001.75.75 0 0 1-1.499.001" clip-rule="evenodd"/></svg>
